dist/images/time.svg

<?xml version="1.0" encoding="UTF-8" standalone="no"?><svg width="48" height="49" viewBox="0 0 48 49" fill="none" xmlns="http://www.w3.org/2000/svg">
<path fill-rule="evenodd" clip-rule="evenodd" d="M24 44.2129C35.0457 44.2129 44 35.2586 44 24.2129C44 13.1672 35.0457 4.21289 24 4.21289C12.9543 4.21289 4 13.1672 4 24.2129C4 35.2586 12.9543 44.2129 24 44.2129ZM24 48.2129C37.2548 48.2129 48 37.4677 48 24.2129C48 10.9581 37.2548 0.212891 24 0.212891C10.7452 0.212891 0 10.9581 0 24.2129C0 37.4677 10.7452 48.2129 24 48.2129ZM22 26.2129V8.21289H26V22.2129H40V26.2129H26H22Z" fill="#FFEED3"/>
</svg>

<svg width="48" height="49" fill="none" xmlns="http://www.w3.org/2000/svg"><path fill-rule="evenodd" clip-rule="evenodd" d="M24 44.213c11.046 0 20-8.954 20-20s-8.954-20-20-20-20 8.954-20 20 8.954 20 20 20zm0 4c13.255 0 24-10.745 24-24s-10.745-24-24-24-24 10.745-24 24 10.745 24 24 24zm-2-22v-18h4v14h14v4H22z" fill="#FFEED3"/></svg>
